synths/sINJ.svg

<svg width="42" height="42" viewBox="0 0 42 42" fill="none" xmlns="http://www.w3.org/2000/svg">
<g clip-path="url(#clip0_7277_58012)">
<mask id="mask0_7277_58012" style="mask-type:alpha" maskUnits="userSpaceOnUse" x="0" y="0" width="43" height="42">
<ellipse cx="21.1479" cy="21" rx="21.1479" ry="21" fill="url(#paint0_linear_7277_58012)"/>
</mask>
<g mask="url(#mask0_7277_58012)">
<ellipse cx="21.1479" cy="21" rx="21.1479" ry="21" fill="#34EDB3"/>
<ellipse cx="21.1479" cy="21" rx="18.3282" ry="18.2" fill="white"/>
</g>
<ellipse cx="21.1479" cy="21" rx="16.2134" ry="16.1" fill="#06061B"/>
<ellipse cx="21.1479" cy="21" rx="16.2134" ry="16.1" fill="#F5F5FF"/>
<path d="M9.92333 11.5354C10.1095 11.3077 10.3031 11.0875 10.4967 10.8672C10.5042 10.8598 10.5265 10.8525 10.5339 10.8452C10.5488 10.8231 10.5786 10.8084 10.601 10.7864L10.6159 10.7644C10.7499 10.6396 10.8988 10.5074 11.0626 10.3826C11.6584 9.94201 12.269 9.60425 12.9168 9.37663C15.0018 8.65704 17.3176 9.0976 19.1346 10.7938C21.6738 13.1361 21.443 16.9175 19.4175 19.4287C16.856 23.1735 12.4626 28.3941 18.5463 33.0714C19.6409 33.9158 20.4526 34.606 23.9003 35.5899C21.644 36.0011 19.5516 35.8689 17.2283 35.2889C15.5826 34.371 12.9913 32.4105 12.1126 29.7598C10.7797 25.7434 14.4582 19.7298 16.2305 17.4168C18.6655 14.2154 14.7263 10.7497 11.8147 14.6193C10.3105 16.6385 7.65217 22.3438 8.57553 26.5805C9.11167 28.9815 9.83398 30.7291 12.686 33.1375C12.1573 32.8291 11.6435 32.484 11.1446 32.0875C4.52467 26.0004 5.29165 16.5871 9.92333 11.5354Z" fill="url(#paint1_linear_7277_58012)"/>
<path d="M32.486 30.7585C32.2998 30.9861 32.1062 31.2064 31.9126 31.4267C31.9051 31.434 31.8828 31.4413 31.8754 31.4487C31.8605 31.4707 31.8307 31.4854 31.8083 31.5074L31.7935 31.5295C31.6594 31.6543 31.5105 31.7865 31.3467 31.9039C30.751 32.3445 30.1403 32.6823 29.4925 32.9099C27.4075 33.6295 25.0917 33.1889 23.2747 31.4927C20.7355 29.1504 20.9663 25.369 22.9918 22.8578C25.5533 19.113 29.9467 13.8924 23.863 9.21512C22.7684 8.37071 21.9567 7.6805 18.509 6.69659C20.7653 6.2854 22.8577 6.41757 25.181 6.99764C26.8267 7.91547 29.418 9.87596 30.2967 12.5267C31.6296 16.5431 27.9511 22.5567 26.1788 24.8697C23.7438 28.0711 27.683 31.5368 30.5946 27.6672C32.1136 25.648 34.772 19.9427 33.8487 15.706C33.3125 13.305 32.5902 11.5574 29.7382 9.14904C30.2669 9.45743 30.7807 9.80253 31.2796 10.199C37.8846 16.2934 37.1177 25.7067 32.486 30.7585Z" fill="url(#paint2_linear_7277_58012)"/>
</g>
<defs>
<linearGradient id="paint0_linear_7277_58012" x1="21.1479" y1="0" x2="21.1479" y2="61.4091" gradientUnits="userSpaceOnUse">
<stop stop-color="#08021E"/>
<stop offset="1" stop-color="#1F0777"/>
</linearGradient>
<linearGradient id="paint1_linear_7277_58012" x1="6.31181" y1="22.4419" x2="36.0976" y2="22.4419" gradientUnits="userSpaceOnUse">
<stop stop-color="#0082FA"/>
<stop offset="1" stop-color="#00F2FE"/>
</linearGradient>
<linearGradient id="paint2_linear_7277_58012" x1="6.31174" y1="19.8519" x2="36.0975" y2="19.8519" gradientUnits="userSpaceOnUse">
<stop stop-color="#0082FA"/>
<stop offset="1" stop-color="#00F2FE"/>
</linearGradient>
<clipPath id="clip0_7277_58012">
<rect width="42" height="42" fill="white"/>
</clipPath>
</defs>
</svg>

<svg xmlns="http://www.w3.org/2000/svg" width="42" height="42" fill="none"><g clip-path="url(#a)"><mask id="c" width="43" height="42" x="0" y="0" maskUnits="userSpaceOnUse" style="mask-type:alpha"><ellipse cx="21.148" cy="21" fill="url(#b)" rx="21.148" ry="21"/></mask><g mask="url(#c)"><ellipse cx="21.148" cy="21" fill="#34EDB3" rx="21.148" ry="21"/><ellipse cx="21.148" cy="21" fill="#fff" rx="18.328" ry="18.2"/></g><ellipse cx="21.148" cy="21" fill="#06061B" rx="16.213" ry="16.1"/><ellipse cx="21.148" cy="21" fill="#F5F5FF" rx="16.213" ry="16.1"/><path fill="url(#d)" d="M9.923 11.535c.187-.227.38-.447.574-.668.007-.007.03-.015.037-.022.015-.022.045-.037.067-.059l.015-.022c.134-.124.283-.257.447-.381a7.034 7.034 0 0 1 1.854-1.006c2.085-.72 4.4-.28 6.218 1.417 2.539 2.342 2.308 6.123.282 8.635-2.561 3.745-6.954 8.965-.87 13.642 1.094.845 1.906 1.535 5.353 2.519-2.256.411-4.348.279-6.672-.301-1.645-.918-4.237-2.879-5.115-5.53-1.333-4.016 2.345-10.03 4.117-12.342 2.436-3.202-1.504-6.667-4.415-2.798-1.505 2.02-4.163 7.725-3.24 11.962.537 2.4 1.259 4.148 4.111 6.557a12.958 12.958 0 0 1-1.541-1.05C4.525 26 5.292 16.587 9.923 11.534Z"/><path fill="url(#e)" d="M32.486 30.759c-.186.227-.38.447-.573.668-.008.007-.03.014-.038.022-.015.022-.044.036-.067.058l-.014.022a4.58 4.58 0 0 1-.447.375 7.032 7.032 0 0 1-1.855 1.006c-2.085.72-4.4.279-6.217-1.417-2.54-2.343-2.309-6.124-.283-8.635 2.561-3.745 6.955-8.966.871-13.643-1.095-.844-1.906-1.534-5.354-2.518 2.256-.412 4.349-.28 6.672.3 1.646.918 4.237 2.879 5.116 5.53 1.333 4.016-2.346 10.03-4.118 12.343-2.435 3.201 1.504 6.667 4.416 2.797 1.519-2.019 4.177-7.724 3.254-11.961-.536-2.401-1.259-4.149-4.11-6.557a12.96 12.96 0 0 1 1.54 1.05c6.606 6.094 5.839 15.508 1.207 20.56Z"/></g><defs><linearGradient id="b" x1="21.148" x2="21.148" y1="0" y2="61.409" gradientUnits="userSpaceOnUse"><stop stop-color="#08021E"/><stop offset="1" stop-color="#1F0777"/></linearGradient><linearGradient id="d" x1="6.312" x2="36.098" y1="22.442" y2="22.442" gradientUnits="userSpaceOnUse"><stop stop-color="#0082FA"/><stop offset="1" stop-color="#00F2FE"/></linearGradient><linearGradient id="e" x1="6.312" x2="36.097" y1="19.852" y2="19.852" gradientUnits="userSpaceOnUse"><stop stop-color="#0082FA"/><stop offset="1" stop-color="#00F2FE"/></linearGradient><clipPath id="a"><path fill="#fff" d="M0 0h42v42H0z"/></clipPath></defs></svg>
